static/img/kroki/a596e9154e86c7e901ea860e79669cd2.svg

<?xml version="1.0" encoding="us-ascii" standalone="no"?><svg xmlns="http://www.w3.org/2000/svg" xmlns:xlink="http://www.w3.org/1999/xlink" contentStyleType="text/css" height="837px" preserveAspectRatio="none" style="width:573px;height:837px;" version="1.1" viewBox="0 0 573 837" width="573px" zoomAndPan="magnify"><defs/><g><!--class aws_ec2_network_interface--><g id="elem_aws_ec2_network_interface"><rect codeLine="23" fill="#3D176E" height="39.7891" id="aws_ec2_network_interface" rx="2.5" ry="2.5" style="stroke:#000D19;stroke-width:0.5;" width="275" x="7" y="791.62"/><ellipse cx="22" cy="811.5145" fill="#ADD1B2" rx="11" ry="11" style="stroke:#181818;stroke-width:1.0;"/><path d="M24.9688,817.1552 Q24.3906,817.452 23.75,817.5927 Q23.1094,817.7489 22.4063,817.7489 Q19.9063,817.7489 18.5781,816.1083 Q17.2656,814.452 17.2656,811.327 Q17.2656,808.202 18.5781,806.5458 Q19.9063,804.8895 22.4063,804.8895 Q23.1094,804.8895 23.75,805.0458 Q24.4063,805.202 24.9688,805.4989 L24.9688,808.2177 Q24.3438,807.6395 23.75,807.3739 Q23.1563,807.0927 22.5313,807.0927 Q21.1875,807.0927 20.5,808.1708 Q19.8125,809.2333 19.8125,811.327 Q19.8125,813.4208 20.5,814.4989 Q21.1875,815.5614 22.5313,815.5614 Q23.1563,815.5614 23.75,815.2958 Q24.3438,815.0145 24.9688,814.4364 L24.9688,817.1552 Z " fill="#000000"/><text fill="#D9B8FF" font-family="Helvetica" font-size="17" lengthAdjust="spacing" textLength="233" x="41" y="817.3998">aws_ec2_network_interface</text></g><!--class azure_network_interface--><g id="elem_azure_network_interface"><rect codeLine="26" fill="#3D176E" height="39.7891" id="azure_network_interface" rx="2.5" ry="2.5" style="stroke:#000D19;stroke-width:0.5;" width="250" x="316.5" y="791.62"/><ellipse cx="331.5" cy="811.5145" fill="#ADD1B2" rx="11" ry="11" style="stroke:#181818;stroke-width:1.0;"/><path d="M334.4688,817.1552 Q333.8906,817.452 333.25,817.5927 Q332.6094,817.7489 331.9063,817.7489 Q329.4063,817.7489 328.0781,816.1083 Q326.7656,814.452 326.7656,811.327 Q326.7656,808.202 328.0781,806.5458 Q329.4063,804.8895 331.9063,804.8895 Q332.6094,804.8895 333.25,805.0458 Q333.9063,805.202 334.4688,805.4989 L334.4688,808.2177 Q333.8438,807.6395 333.25,807.3739 Q332.6563,807.0927 332.0313,807.0927 Q330.6875,807.0927 330,808.1708 Q329.3125,809.2333 329.3125,811.327 Q329.3125,813.4208 330,814.4989 Q330.6875,815.5614 332.0313,815.5614 Q332.6563,815.5614 333.25,815.2958 Q333.8438,815.0145 334.4688,814.4364 L334.4688,817.1552 Z " fill="#000000"/><text fill="#D9B8FF" font-family="Helvetica" font-size="17" lengthAdjust="spacing" textLength="208" x="350.5" y="817.3998">azure_network_interface</text></g><!--class network_interface--><g id="elem_network_interface"><rect codeLine="29" fill="#3D176E" height="231.8672" id="network_interface" rx="2.5" ry="2.5" style="stroke:#000D19;stroke-width:0.5;" width="270" x="157.5" y="438.75"/><ellipse cx="206.75" cy="458.6445" fill="#ADD1B2" rx="11" ry="11" style="stroke:#181818;stroke-width:1.0;"/><path d="M209.7188,464.2852 Q209.1406,464.582 208.5,464.7227 Q207.8594,464.8789 207.1563,464.8789 Q204.6563,464.8789 203.3281,463.2383 Q202.0156,461.582 202.0156,458.457 Q202.0156,455.332 203.3281,453.6758 Q204.6563,452.0195 207.1563,452.0195 Q207.8594,452.0195 208.5,452.1758 Q209.1563,452.332 209.7188,452.6289 L209.7188,455.3477 Q209.0938,454.7695 208.5,454.5039 Q207.9063,454.2227 207.2813,454.2227 Q205.9375,454.2227 205.25,455.3008 Q204.5625,456.3633 204.5625,458.457 Q204.5625,460.5508 205.25,461.6289 Q205.9375,462.6914 207.2813,462.6914 Q207.9063,462.6914 208.5,462.4258 Q209.0938,462.1445 209.7188,461.5664 L209.7188,464.2852 Z " fill="#000000"/><text fill="#D9B8FF" font-family="Helvetica" font-size="17" lengthAdjust="spacing" textLength="153" x="232.25" y="464.5298">network_interface</text><line style="stroke:#000D19;stroke-width:0.5;" x1="158.5" x2="426.5" y1="478.5391" y2="478.5391"/><text fill="#D9B8FF" font-family="sans-serif" font-size="14" font-weight="bold" lengthAdjust="spacing" textLength="89" x="168.5" y="500.5342">description</text><text fill="#D9B8FF" font-family="sans-serif" font-size="14" lengthAdjust="spacing" textLength="48" x="257.5" y="500.5342">: string</text><text fill="#D9B8FF" font-family="sans-serif" font-size="14" font-weight="bold" lengthAdjust="spacing" textLength="32" x="168.5" y="526.8311">mac</text><text fill="#D9B8FF" font-family="sans-serif" font-size="14" lengthAdjust="spacing" textLength="48" x="200.5" y="526.8311">: string</text><text fill="#D9B8FF" font-family="sans-serif" font-size="14" font-weight="bold" lengthAdjust="spacing" textLength="200" x="168.5" y="553.1279">network_interface_status</text><text fill="#D9B8FF" font-family="sans-serif" font-size="14" lengthAdjust="spacing" textLength="48" x="368.5" y="553.1279">: string</text><text fill="#D9B8FF" font-family="sans-serif" font-size="14" font-weight="bold" lengthAdjust="spacing" textLength="186" x="168.5" y="579.4248">network_interface_type</text><text fill="#D9B8FF" font-family="sans-serif" font-size="14" lengthAdjust="spacing" textLength="48" x="354.5" y="579.4248">: string</text><text fill="#D9B8FF" font-family="sans-serif" font-size="14" font-weight="bold" lengthAdjust="spacing" textLength="85" x="168.5" y="605.7217">private_ips</text><text fill="#D9B8FF" font-family="sans-serif" font-size="14" lengthAdjust="spacing" textLength="58" x="253.5" y="605.7217">: string[]</text><text fill="#D9B8FF" font-family="sans-serif" font-size="14" font-weight="bold" lengthAdjust="spacing" textLength="77" x="168.5" y="632.0186">public_ips</text><text fill="#D9B8FF" font-family="sans-serif" font-size="14" lengthAdjust="spacing" textLength="58" x="245.5" y="632.0186">: string[]</text><text fill="#D9B8FF" font-family="sans-serif" font-size="14" font-weight="bold" lengthAdjust="spacing" textLength="49" x="168.5" y="658.3154">v6_ips</text><text fill="#D9B8FF" font-family="sans-serif" font-size="14" lengthAdjust="spacing" textLength="58" x="217.5" y="658.3154">: string[]</text></g><!--class resource--><g id="elem_resource"><rect codeLine="38" fill="#3D176E" height="310.7578" id="resource" rx="2.5" ry="2.5" style="stroke:#000D19;stroke-width:0.5;" width="227" x="179" y="7"/><ellipse cx="247.75" cy="26.8945" fill="#ADD1B2" rx="11" ry="11" style="stroke:#181818;stroke-width:1.0;"/><path d="M250.7188,32.5352 Q250.1406,32.832 249.5,32.9727 Q248.8594,33.1289 248.1563,33.1289 Q245.6563,33.1289 244.3281,31.4883 Q243.0156,29.832 243.0156,26.707 Q243.0156,23.582 244.3281,21.9258 Q245.6563,20.2695 248.1563,20.2695 Q248.8594,20.2695 249.5,20.4258 Q250.1563,20.582 250.7188,20.8789 L250.7188,23.5977 Q250.0938,23.0195 249.5,22.7539 Q248.9063,22.4727 248.2813,22.4727 Q246.9375,22.4727 246.25,23.5508 Q245.5625,24.6133 245.5625,26.707 Q245.5625,28.8008 246.25,29.8789 Q246.9375,30.9414 248.2813,30.9414 Q248.9063,30.9414 249.5,30.6758 Q250.0938,30.3945 250.7188,29.8164 L250.7188,32.5352 Z " fill="#000000"/><text fill="#D9B8FF" font-family="Helvetica" font-size="17" lengthAdjust="spacing" textLength="71" x="273.25" y="32.7798">resource</text><line style="stroke:#000D19;stroke-width:0.5;" x1="180" x2="405" y1="46.7891" y2="46.7891"/><text fill="#D9B8FF" font-family="sans-serif" font-size="14" font-weight="bold" lengthAdjust="spacing" textLength="29" x="190" y="68.7842">age</text><text fill="#D9B8FF" font-family="sans-serif" font-size="14" lengthAdjust="spacing" textLength="66" x="219" y="68.7842">: duration</text><text fill="#D9B8FF" font-family="sans-serif" font-size="14" font-weight="bold" lengthAdjust="spacing" textLength="43" x="190" y="95.0811">atime</text><text fill="#D9B8FF" font-family="sans-serif" font-size="14" lengthAdjust="spacing" textLength="70" x="233" y="95.0811">: datetime</text><text fill="#D9B8FF" font-family="sans-serif" font-size="14" font-weight="bold" lengthAdjust="spacing" textLength="43" x="190" y="121.3779">ctime</text><text fill="#D9B8FF" font-family="sans-serif" font-size="14" lengthAdjust="spacing" textLength="70" x="233" y="121.3779">: datetime</text><text fill="#D9B8FF" font-family="sans-serif" font-size="14" font-weight="bold" lengthAdjust="spacing" textLength="14" x="190" y="147.6748">id</text><text fill="#D9B8FF" font-family="sans-serif" font-size="14" lengthAdjust="spacing" textLength="48" x="204" y="147.6748">: string</text><text fill="#D9B8FF" font-family="sans-serif" font-size="14" font-weight="bold" lengthAdjust="spacing" textLength="33" x="190" y="173.9717">kind</text><text fill="#D9B8FF" font-family="sans-serif" font-size="14" lengthAdjust="spacing" textLength="48" x="223" y="173.9717">: string</text><text fill="#D9B8FF" font-family="sans-serif" font-size="14" font-weight="bold" lengthAdjust="spacing" textLength="90" x="190" y="200.2686">last_access</text><text fill="#D9B8FF" font-family="sans-serif" font-size="14" lengthAdjust="spacing" textLength="66" x="280" y="200.2686">: duration</text><text fill="#D9B8FF" font-family="sans-serif" font-size="14" font-weight="bold" lengthAdjust="spacing" textLength="90" x="190" y="226.5654">last_update</text><text fill="#D9B8FF" font-family="sans-serif" font-size="14" lengthAdjust="spacing" textLength="66" x="280" y="226.5654">: duration</text><text fill="#D9B8FF" font-family="sans-serif" font-size="14" font-weight="bold" lengthAdjust="spacing" textLength="48" x="190" y="252.8623">mtime</text><text fill="#D9B8FF" font-family="sans-serif" font-size="14" lengthAdjust="spacing" textLength="70" x="238" y="252.8623">: datetime</text><text fill="#D9B8FF" font-family="sans-serif" font-size="14" font-weight="bold" lengthAdjust="spacing" textLength="43" x="190" y="279.1592">name</text><text fill="#D9B8FF" font-family="sans-serif" font-size="14" lengthAdjust="spacing" textLength="48" x="233" y="279.1592">: string</text><text fill="#D9B8FF" font-family="sans-serif" font-size="14" font-weight="bold" lengthAdjust="spacing" textLength="34" x="190" y="305.4561">tags</text><text fill="#D9B8FF" font-family="sans-serif" font-size="14" lengthAdjust="spacing" textLength="171" x="224" y="305.4561">: dictionary[string, string]</text></g><!--reverse link network_interface to aws_ec2_network_interface--><g id="link_network_interface_aws_ec2_network_interface"><path codeLine="50" d="M216.5997,686.3651 C189.7897,732.5251 170.76,765.3 155.68,791.27 " fill="none" id="network_interface-backto-aws_ec2_network_interface" style="stroke:#FFAF37;stroke-width:2.0;"/><polygon fill="none" points="225.64,670.8,211.4113,683.3517,221.7881,689.3786,225.64,670.8" style="stroke:#FFAF37;stroke-width:2.0;"/></g><!--reverse link network_interface to azure_network_interface--><g id="link_network_interface_azure_network_interface"><path codeLine="51" d="M368.8956,686.3387 C395.8856,732.4987 415.06,765.3 430.25,791.27 " fill="none" id="network_interface-backto-azure_network_interface" style="stroke:#FFAF37;stroke-width:2.0;"/><polygon fill="none" points="359.81,670.8,363.716,689.3673,374.0752,683.3102,359.81,670.8" style="stroke:#FFAF37;stroke-width:2.0;"/></g><!--reverse link resource to network_interface--><g id="link_resource_network_interface"><path codeLine="52" d="M292.5,336.2 C292.5,376.32 292.5,400.82 292.5,438.5 " fill="none" id="resource-backto-network_interface" style="stroke:#FFAF37;stroke-width:2.0;"/><polygon fill="none" points="292.5,318.2,286.5,336.2,298.5,336.2,292.5,318.2" style="stroke:#FFAF37;stroke-width:2.0;"/></g><!--SRC=[XPD1Rzim38Nl_XK2UWiM86cnfXbswG8CxQKOrjsAmM0aEX5YIGP59qYt_VT9SLBObfFSxFS-YdoKlTOA1PgAzyAWMIBvp6-qhO30Y4SYjrkuqf6uAGeexcPzyxkpV1Lu0OFY2SijifRG9twjjTnOz5xSjgnl83ShShLLpV5CO7smq7ABMfJW_ICpwMNDs1f6pPSFHT4d-uVUtAdfx1uJp952EYAJoKHDvttaQgkBkJ-8L_sEOjfUsejZJCPCMXoeYrD6eZLa4lJadvtn1oYbxKfyRca_cvd88dNqrpKejujq0QLlj_6CX8xt5IwIL3X_KCLi47u-1sSohax0pkSeRtEBl7EqoRKDfGL857-oxDy9Ugy9BoD3vcYaq4lI5MjdHwClOImAqO9kG7RUa-hSCt3jhq0nO0UfI6-1CTTLg_JjTtJgPQdbWB6zJyHJ9aBlQZf6WTMXbQe9Ofoei3QD5bh6vw390KshpepXahf2wCKvI1b-t5w7WrDNyQoUOmRwM33TRJ2icXErZ6L0-xV6-tHaOjJquhx-7O_7vp-CynN3NqdsiSO6Iu7_]--></g></svg>

<svg xmlns="http://www.w3.org/2000/svg" width="573" height="837" viewBox="0 0 573 837"><rect width="275" height="39.789" x="7" y="791.62" fill="#3D176E" rx="2.5" ry="2.5" style="stroke:#000d19;stroke-width:.5"/><circle cx="22" cy="811.514" r="11" fill="#ADD1B2" style="stroke:#181818;stroke-width:1"/><path d="M24.969 817.155q-.578.297-1.219.438-.64.156-1.344.156-2.5 0-3.828-1.64-1.312-1.657-1.312-4.782t1.312-4.781q1.328-1.657 3.828-1.657.703 0 1.344.157.656.156 1.219.453v2.719q-.625-.578-1.219-.844-.594-.281-1.219-.281-1.343 0-2.031 1.078-.687 1.062-.687 3.156t.687 3.172q.688 1.062 2.031 1.062.625 0 1.219-.265.594-.282 1.219-.86z"/><text x="41" y="817.4" fill="#D9B8FF" font-family="Helvetica" font-size="17" textLength="233">aws_ec2_network_interface</text><rect width="250" height="39.789" x="316.5" y="791.62" fill="#3D176E" rx="2.5" ry="2.5" style="stroke:#000d19;stroke-width:.5"/><circle cx="331.5" cy="811.514" r="11" fill="#ADD1B2" style="stroke:#181818;stroke-width:1"/><path d="M334.469 817.155q-.578.297-1.219.438-.64.156-1.344.156-2.5 0-3.828-1.64-1.312-1.657-1.312-4.782t1.312-4.781q1.328-1.657 3.828-1.657.703 0 1.344.157.656.156 1.219.453v2.719q-.625-.578-1.219-.844-.594-.281-1.219-.281-1.344 0-2.031 1.078-.687 1.062-.687 3.156t.687 3.172q.688 1.062 2.031 1.062.625 0 1.219-.265.594-.282 1.219-.86z"/><text x="350.5" y="817.4" fill="#D9B8FF" font-family="Helvetica" font-size="17" textLength="208">azure_network_interface</text><rect width="270" height="231.867" x="157.5" y="438.75" fill="#3D176E" rx="2.5" ry="2.5" style="stroke:#000d19;stroke-width:.5"/><circle cx="206.75" cy="458.644" r="11" fill="#ADD1B2" style="stroke:#181818;stroke-width:1"/><path d="M209.719 464.285q-.578.297-1.219.438-.64.156-1.344.156-2.5 0-3.828-1.64-1.312-1.657-1.312-4.782t1.312-4.781q1.328-1.656 3.828-1.656.703 0 1.344.156.656.156 1.219.453v2.719q-.625-.579-1.219-.844-.594-.281-1.219-.281-1.344 0-2.031 1.078-.687 1.062-.687 3.156t.687 3.172q.688 1.062 2.031 1.062.625 0 1.219-.265.594-.281 1.219-.86z"/><text x="232.25" y="464.53" fill="#D9B8FF" font-family="Helvetica" font-size="17" textLength="153">network_interface</text><path d="M158.5 478.539h268" style="stroke:#000d19;stroke-width:.5"/><text x="168.5" y="500.534" fill="#D9B8FF" font-family="sans-serif" font-size="14" font-weight="bold" textLength="89">description</text><text x="257.5" y="500.534" fill="#D9B8FF" font-family="sans-serif" font-size="14" textLength="48">: string</text><text x="168.5" y="526.831" fill="#D9B8FF" font-family="sans-serif" font-size="14" font-weight="bold" textLength="32">mac</text><text x="200.5" y="526.831" fill="#D9B8FF" font-family="sans-serif" font-size="14" textLength="48">: string</text><text x="168.5" y="553.128" fill="#D9B8FF" font-family="sans-serif" font-size="14" font-weight="bold" textLength="200">network_interface_status</text><text x="368.5" y="553.128" fill="#D9B8FF" font-family="sans-serif" font-size="14" textLength="48">: string</text><text x="168.5" y="579.425" fill="#D9B8FF" font-family="sans-serif" font-size="14" font-weight="bold" textLength="186">network_interface_type</text><text x="354.5" y="579.425" fill="#D9B8FF" font-family="sans-serif" font-size="14" textLength="48">: string</text><text x="168.5" y="605.722" fill="#D9B8FF" font-family="sans-serif" font-size="14" font-weight="bold" textLength="85">private_ips</text><text x="253.5" y="605.722" fill="#D9B8FF" font-family="sans-serif" font-size="14" textLength="58">: string[]</text><text x="168.5" y="632.019" fill="#D9B8FF" font-family="sans-serif" font-size="14" font-weight="bold" textLength="77">public_ips</text><text x="245.5" y="632.019" fill="#D9B8FF" font-family="sans-serif" font-size="14" textLength="58">: string[]</text><text x="168.5" y="658.315" fill="#D9B8FF" font-family="sans-serif" font-size="14" font-weight="bold" textLength="49">v6_ips</text><text x="217.5" y="658.315" fill="#D9B8FF" font-family="sans-serif" font-size="14" textLength="58">: string[]</text><rect width="227" height="310.758" x="179" y="7" fill="#3D176E" rx="2.5" ry="2.5" style="stroke:#000d19;stroke-width:.5"/><circle cx="247.75" cy="26.895" r="11" fill="#ADD1B2" style="stroke:#181818;stroke-width:1"/><path d="M250.719 32.535q-.578.297-1.219.438-.64.156-1.344.156-2.5 0-3.828-1.64-1.312-1.657-1.312-4.782t1.312-4.781q1.328-1.656 3.828-1.656.703 0 1.344.156.656.156 1.219.453v2.719q-.625-.578-1.219-.844-.594-.281-1.219-.281-1.344 0-2.031 1.078-.687 1.062-.687 3.156t.687 3.172q.688 1.062 2.031 1.062.625 0 1.219-.265.594-.281 1.219-.86z"/><text x="273.25" y="32.78" fill="#D9B8FF" font-family="Helvetica" font-size="17" textLength="71">resource</text><path d="M180 46.789h225" style="stroke:#000d19;stroke-width:.5"/><text x="190" y="68.784" fill="#D9B8FF" font-family="sans-serif" font-size="14" font-weight="bold" textLength="29">age</text><text x="219" y="68.784" fill="#D9B8FF" font-family="sans-serif" font-size="14" textLength="66">: duration</text><text x="190" y="95.081" fill="#D9B8FF" font-family="sans-serif" font-size="14" font-weight="bold" textLength="43">atime</text><text x="233" y="95.081" fill="#D9B8FF" font-family="sans-serif" font-size="14" textLength="70">: datetime</text><text x="190" y="121.378" fill="#D9B8FF" font-family="sans-serif" font-size="14" font-weight="bold" textLength="43">ctime</text><text x="233" y="121.378" fill="#D9B8FF" font-family="sans-serif" font-size="14" textLength="70">: datetime</text><text x="190" y="147.675" fill="#D9B8FF" font-family="sans-serif" font-size="14" font-weight="bold" textLength="14">id</text><text x="204" y="147.675" fill="#D9B8FF" font-family="sans-serif" font-size="14" textLength="48">: string</text><text x="190" y="173.972" fill="#D9B8FF" font-family="sans-serif" font-size="14" font-weight="bold" textLength="33">kind</text><text x="223" y="173.972" fill="#D9B8FF" font-family="sans-serif" font-size="14" textLength="48">: string</text><text x="190" y="200.269" fill="#D9B8FF" font-family="sans-serif" font-size="14" font-weight="bold" textLength="90">last_access</text><text x="280" y="200.269" fill="#D9B8FF" font-family="sans-serif" font-size="14" textLength="66">: duration</text><text x="190" y="226.565" fill="#D9B8FF" font-family="sans-serif" font-size="14" font-weight="bold" textLength="90">last_update</text><text x="280" y="226.565" fill="#D9B8FF" font-family="sans-serif" font-size="14" textLength="66">: duration</text><text x="190" y="252.862" fill="#D9B8FF" font-family="sans-serif" font-size="14" font-weight="bold" textLength="48">mtime</text><text x="238" y="252.862" fill="#D9B8FF" font-family="sans-serif" font-size="14" textLength="70">: datetime</text><text x="190" y="279.159" fill="#D9B8FF" font-family="sans-serif" font-size="14" font-weight="bold" textLength="43">name</text><text x="233" y="279.159" fill="#D9B8FF" font-family="sans-serif" font-size="14" textLength="48">: string</text><text x="190" y="305.456" fill="#D9B8FF" font-family="sans-serif" font-size="14" font-weight="bold" textLength="34">tags</text><text x="224" y="305.456" fill="#D9B8FF" font-family="sans-serif" font-size="14" textLength="171">: dictionary[string, string]</text><g fill="none"><path d="M216.6 686.365c-26.81 46.16-45.84 78.935-60.92 104.905" style="stroke:#ffaf37;stroke-width:2"/><path d="m225.64 670.8-14.229 12.552 10.377 6.027z" style="stroke:#ffaf37;stroke-width:2"/></g><path fill="none" d="M368.896 686.339c26.99 46.16 46.164 78.961 61.354 104.931M359.81 670.8l3.906 18.567 10.36-6.057zM292.5 336.2v102.3m0-120.3-6 18h12z" style="stroke:#ffaf37;stroke-width:2"/></svg>
